X: 13074
T: Finnish, The
R: polka
M: 2/4
K: Dmajor
|:B>B Bc|dB Bd|cA Ac|d/c/B/A/ BF|
B>B Bc|dB B2|ef/e/ dc|B2B2:|
|:f>B Bf|ec cd|ef/e/ dc|Bc de|
f>B Bf|ec cd|ef/e/ dc|B2 B2:|

